!!!!SEGMENT: pl-sa--572-a-ix-52--003_anonim--adagio.krn
!!!cenid: 18xx:657
!!!COM: Anonim
!!!COM-rismID: pe30004985
!!!CDT:
!!!CNT:
!!!OTL: Adagio
!!!PDT:
!!!AGN: Secular
!!!SMS-siglum: PL-SA
!!!SMS-shelfmark: 572/A IX 52
!!!SMS-shelfwork: 003 W
!!!SMS-variant:
!!!SMS-altvar:
!!!NIFC-rismSourceID: 1001092012
!!!NIFC-islandoraID:
!!!URL-pdf-islandora:
!!!URL-scan: https://bc.bdsandomierz.pl/dlibra/publication/1378/edition/1346/content @EN{Scan in the Sandomierz Diocese Digital Library} @PL{Skany w portalu Cyfrowa Biblioteka Diecezjalna w Sandomierzu}
!!!ONB-nifc: Str. 3
!!!AIN: 1 empty 1 piano
!!!key:
**kern	**kern
*part2	*part1
*staff2	*staff1
*Iempty	*Ipiano
*	*I"Piano
*	*I'Pno.
*clefF4	*clefG2
*k[b-]	*k[b-]
*F:	*F:
*M3/4	*M3/4
=1	=1
*	*2\right
!LO:TX:a:t=P:problem=wszystkie nuty mają caudy z prawej strony	!LO:TX:a:t=P:problem=wszystkie nuty mają caudy z prawej strony
!	!LO:TX:a:Bi:t=Adagio
4F\	8f\L
.	8a\J
4A\	4.cc 4.a/
4F\	.
.	8ff 8a/
=2	=2
4c\	8ffL 8a/
.	8eeJ 8g/
4C/	4ee 4g/
4c\	4r
=3	=3
4F\	8ffL 8dd/
.	8ddJ 8b-/
4c\	4.cc 4.a/
4C/	.
.	8b- 8g/
=4	=4
4F\	8b-L 8g/
.	8aJ 8f/
4FF/	4a 4f/
4F\	4r
=5	=5
4F\	8ccL 8a/
.	8ffJ 8cc/
4FF/	4.aa 4.cc\
4D/	.
.	8ff 8dd\
=6	=6
4C/	8ffL 8dd\
.	8eeJ 8cc\
4c\	4ee 4cc\
4C/	4r
=7	=7
4B- 4D\	8ffL 8dd/
.	8ddJ 8b-/
4c\	4.cc 4.a/
4G\	.
.	8b- 8g/
=8	=8
!LO:TX:t=P:problem=mixed beam	!
8FF/L	8b-L 8g/
8F\	8aJ 8f/
8F\	4a 4f/
8F\	.
8F\	4r
8F\J	.
!!LO:LB:g=original
=9||	=9||
!LO:TX:t=P:problem=mixed beam	!
8FF/L	2cc 2a/
8F\	.
8F\	.
8F\	.
8F\	8bnL 8g#X/
8F\J	8ccJ 8a/
=10	=10
4FF/	16ddLL 16b-/
.	16cc 16a/
!	!LO:SIC:s=16bn:v
.	16b- 16g#X/
.	16ccJJ 16a/
4F\	2a 2f/
4F\	.
=11	=11
4D\	8ddL 8b-X/
.	8ffJ 8dd/
4d\	4.ff 4.dd/
4d\	.
.	8dd 8b-/
=12	=12
4F\	8ddL 8b-/
.	8ccJ 8a/
8r	4cc 4a/
8F\L	.
8A\	4r
8c\J	.
=13	=13
4FF/	4.cc 4.a/
4F\	.
.	16b-LL 16g/
.	16aJJ 16f/
4F\	8ffL 8dd\
.	16eeL 16cc\
.	16ddJJ 16b-\
=14	=14
4F\	8ddL 8b-\
.	8ccJ 8a\
4F\	4cc 4a\
4F\	4r
=15	=15
4F\	8ccL 8a/
.	16ddL 16b-/
.	16ccJJ 16a/
4c\	4b- 4g/
4F\	4a 4f/
=16	=16
4F\	4a 4f/
!LO:TX:a:t=P:problem=w źródle fermata bez kropki	!
4c 4C;<\	4g 4e;>/
4r	4r
==	==
*-	*-
!!!system-decoration: {(s1,s2)}
!!!RDF**kern: > = above
!!!RDF**kern: < = below
!!!EED: Wojciech Jakubiak-Danek
!!!EEV: 2020-12-10
!!!ENC: Marta Chmielewska
!!!END: 2020-06-19
